X: 49
T: ROSE IS WHITE AND ROSE IS RED
B: FIFTY OLD ENGLISH FOLK DANCE AIRS", Edgar H. Hunt ed., Schott & Co. Ltd. pub., London 1939
Z: 2004-2014 John Chambers <jc:trillian.mit.edu>
M: 6/8
L: 1/8
K: Gmix
[|\
B2B  B>AG | A2A c>BA | B2B B>AG | B3 d2(e/f/) |\
g>fe d>cB | A2A e>dc | B2B B>AG | B3 d3 |]

%%sep 1 1 500
%%sep 1 1 500
